img/icons/electronic/video-camera.svg

<svg xmlns="http://www.w3.org/2000/svg" viewBox="0 0 48 33.08"><g data-name="Layer 2"><g data-name="Device / Electronic"><path d="M27 6h-4.37l-3-6H6v2h12.38l2 4H0v26h27a9 9 0 009-9v-8a9 9 0 00-9-9zm7 17a7 7 0 01-7 7H2V8h25a7 7 0 017 7zm3.76-4L48 33.08V4.93zM46 27l-5.76-8L46 11.07z" fill="#231f20" data-name="Video Camera"/></g></g></svg>

<svg xmlns="http://www.w3.org/2000/svg" viewBox="0 0 48 33.08"><defs><style>.cls-1{fill:#231f20;}</style></defs><title>Video Camera</title><g id="Layer_2" data-name="Layer 2"><g id="Icons"><g id="Device_Electronic" data-name="Device / Electronic"><g id="Video_Camera" data-name="Video Camera"><path class="cls-1" d="M27,6H22.63l-3-6H6V2H18.38l2,4L0,6V32H27a9,9,0,0,0,9-9V15A9,9,0,0,0,27,6Zm7,17a7,7,0,0,1-7,7H2V8L27,8a7,7,0,0,1,7,7Z"/><path class="cls-1" d="M37.76,19,48,33.08V4.93Zm8.24,8L40.24,19,46,11.07Z"/></g></g></g></g></svg>
